X: 284
T:D'r. Maia
M:2/4
L:1/8
R:branle
N:Gary Chapin
K:A Minor
E|A3 A|B3 B|c2 BA|Bd cB|A3 A|B3 B|c BA|B4|B>c dB|c3 B|AA cB|_A3E|_A>=A B
_A|(=A4|A3)||
W:
W: From "Falaleiro" http://home.t-online.de/home/pheld/homepage.htm
